img/logo.svg

<svg width="117" height="114" viewBox="0 0 117 114" fill="none" xmlns="http://www.w3.org/2000/svg">
<g clip-path="url(#clip0)">
<path d="M113.583 56.8434C113.583 88.1124 88.1124 113.687 56.8434 113.687C25.4708 113.583 0 88.1124 0 56.7398C0 25.4708 25.4708 0 56.8434 0C88.1124 0 113.583 25.4708 113.583 56.8434ZM8.38673 56.7398C8.28319 83.1425 29.5088 104.472 55.4973 105.196C82.6248 105.921 105.196 84.1779 105.196 56.9469C105.3 30.1301 83.7637 9.1115 58.1894 8.38673C30.6478 7.66195 8.28319 29.923 8.38673 56.7398Z" fill="#004E8F"/>
<path d="M114.101 76.4124C117.725 74.4452 117.725 74.031 115.24 71.2354C110.27 65.9549 105.404 60.5708 100.434 55.2903C94.7389 49.1815 88.7336 43.4868 81.3823 39.4487C80.0363 38.7239 78.6903 38.2062 77.2407 37.7921L77.3443 37.6885C79.9327 35.3071 82.1071 32.7186 82.8319 29.0947C83.1425 27.7487 84.0743 26.8169 85.6274 26.6098C86.7664 26.4027 87.9053 26.0921 88.9407 25.7815C88.9407 25.4708 88.9407 25.2638 88.9407 24.9531C87.6982 24.7461 86.3522 24.6425 85.1097 24.4354C83.1425 24.0213 81.0717 23.9177 79.415 22.9859C76.2053 21.3292 73.4097 21.5363 70.7177 23.7107C68.9575 25.1602 67.1973 26.8169 65.4372 28.2664C62.8487 30.4407 60.3637 31.4761 57.9823 31.2691C57.9823 31.2691 57.8788 31.2691 57.8788 31.3726C55.9115 29.3018 53.6336 27.9558 50.9416 27.1275C42.8655 24.7461 34.6858 24.3319 26.2991 24.4354C19.0513 24.539 11.8035 24.7461 4.45221 24.9531C0.724781 25.0567 0.414162 25.3673 1.5531 29.3018C9.42213 28.6806 17.2912 28.0593 25.1602 27.4381C25.1602 27.6452 25.2637 27.8523 25.2637 27.9558C17.4982 28.9912 9.62921 30.0266 1.86372 31.062C2.0708 34.5823 2.17434 34.7894 5.28053 34.1682C11.4929 33.0292 17.7053 31.7868 23.9177 30.5443C24.6425 30.4407 25.3673 30.4407 26.092 30.3372L26.1956 30.9584C18.7407 32.7186 11.2858 34.3753 3.83098 36.1354C4.96991 38.6204 6.21239 39.5523 8.80089 38.7239C13.9779 36.9638 19.2584 35.5142 24.4354 33.9611C25.2637 33.754 25.9885 33.5469 26.8168 33.3399C26.9204 33.5469 26.9204 33.754 27.0239 34.0646C21.1221 36.1354 15.1168 38.3098 9.11151 40.3806C11.3894 43.0726 12.4248 43.3832 15.3239 42.1407C18.5336 40.6912 21.7434 39.0346 25.0566 37.4815C25.6779 37.1708 26.4027 36.9638 27.0239 36.6531C27.1274 36.8602 27.231 37.0673 27.3345 37.2744C23.7106 39.4487 20.1903 41.5195 16.3593 43.7974C19.2584 45.0399 21.6398 45.0399 23.9177 42.8655C25.6779 41.1054 27.8522 39.6558 29.8195 37.9992C30.0266 38.2062 30.2336 38.4133 30.3372 38.5169C28.1628 40.5877 25.9885 42.5549 23.6071 44.7292C29.0947 46.1788 30.4407 40.6912 34.4788 39.5523C33.0292 41.2089 31.5796 42.8655 29.923 44.3151C28.1628 45.8682 28.3699 47.1107 29.923 48.6638C32.408 46.0753 34.8929 43.3832 37.3779 40.7947C37.585 41.0018 37.792 41.1054 37.9991 41.3124C35.9283 43.6938 33.9611 46.1788 31.7867 48.4567C30.4407 49.9062 30.3372 50.9416 32.615 52.0806C35.2035 48.8708 37.792 45.6611 40.4841 42.3478C40.6912 42.5549 41.0018 42.762 41.2089 42.9691C38.7239 46.2823 36.2389 49.6992 33.5469 53.4266C34.4788 54.0478 36.0319 54.9797 37.585 55.9115C37.2743 56.9469 37.0673 57.9823 36.8602 58.9142C38.8274 59.7425 39.9664 61.1921 40.5876 63.5735C41.3124 66.3691 41.4159 69.3717 40.277 71.9602C38.3097 76.4124 36.1354 80.8646 33.6504 85.0062C31.0619 89.4585 28.1628 93.8071 27.0239 98.9841C26.4027 101.573 27.231 102.919 29.8195 102.919C30.7513 102.919 41.7266 104.989 42.4513 105.3C42.762 105.404 43.0726 105.507 43.3832 105.507C44.6257 105.714 45.3504 105.3 45.3504 103.954C45.3504 102.608 45.454 101.262 45.5575 100.02C45.8681 95.3602 45.8681 90.7009 46.6965 86.1452C47.7319 80.2434 51.8735 75.8947 54.9796 71.1319C55.2903 70.6142 56.3257 70.4071 57.0504 70.0965C58.8106 69.2682 60.7779 68.6469 62.331 67.4045C64.5053 65.5407 66.9903 64.2983 69.5788 63.47C71.3389 66.0584 73.0991 68.6469 74.031 69.7859C74.7558 65.2301 75.4805 61.0885 76.2053 57.0505C76.5159 57.0505 76.8266 57.154 77.1372 57.154C76.6195 61.3992 76.1018 65.5407 75.5841 69.5788C78.069 70.4071 78.6903 69.5788 78.7938 67.6115C79.0009 64.5054 79.3115 61.2956 79.6221 58.1894C79.9328 58.1894 80.1398 58.1894 80.4504 58.293C80.3469 61.9169 80.1398 65.5408 80.0363 69.1646C82.3142 69.2682 83.3496 68.4399 83.1425 66.162C83.0389 63.9877 83.3496 61.8133 83.4531 59.5354C85.4204 63.1593 82.4177 67.9222 87.2841 70.9248C87.1805 67.7151 87.1805 64.7124 87.077 61.8133C87.3876 61.8133 87.5947 61.8133 87.9053 61.8133C88.1124 64.2983 88.6301 66.8868 88.5266 69.3717C88.5266 72.4779 90.1832 74.1346 93.0823 75.377C92.0469 71.0284 91.1151 66.9903 90.1832 62.9523L90.8044 62.7452C91.1151 63.47 91.3221 64.0912 91.6328 64.816C92.7717 68.2328 93.8071 71.6496 95.0496 75.0664C96.085 77.9655 97.0168 78.4832 100.537 78.2761C97.8451 72.4779 95.2566 66.6797 92.6682 60.985C92.8752 60.8815 93.0823 60.7779 93.2894 60.6744C93.7035 61.3992 94.2213 62.0204 94.5319 62.8487C97.0168 67.7151 99.6053 72.4779 101.987 77.4478C103.126 79.9328 104.782 80.1399 107.267 79.208C103.229 72.5815 99.2947 66.0584 95.3602 59.5354C95.5673 59.4319 95.7743 59.3284 95.8779 59.2248C96.3956 59.7425 96.9133 60.3638 97.3274 60.985C100.744 66.2655 104.161 71.6496 107.681 76.9301C109.442 79.5186 109.649 79.5186 112.341 77.2407C107.681 70.9248 103.022 64.6089 98.3628 58.1894C98.5699 58.0859 98.6735 57.9823 98.8805 57.8788C104.058 64.1947 109.131 70.3036 114.101 76.4124Z" fill="#009BD6"/>
</g>
<defs>
<clipPath id="clip0">
<rect width="117" height="113.583" fill="white"/>
</clipPath>
</defs>
</svg>

<svg width="117" height="114" fill="none" xmlns="http://www.w3.org/2000/svg"><g clip-path="url(#clip0)"><path d="M113.583 56.843c0 31.27-25.47 56.844-56.74 56.844C25.471 113.583 0 88.112 0 56.74 0 25.47 25.47 0 56.843 0c31.27 0 56.74 25.47 56.74 56.843zM8.387 56.74c-.104 26.402 21.122 47.732 47.11 48.456 27.128.725 49.699-21.018 49.699-48.25.104-26.816-21.432-47.834-47.007-48.56C30.648 7.663 8.283 29.924 8.387 56.74z" fill="#004E8F"/><path d="M114.101 76.412c3.624-1.967 3.624-2.381 1.139-5.177-4.97-5.28-9.836-10.664-14.806-15.945-5.695-6.108-11.7-11.803-19.052-15.841-1.346-.725-2.692-1.243-4.141-1.657l.103-.104c2.589-2.38 4.763-4.97 5.488-8.593.31-1.346 1.242-2.278 2.795-2.485 1.14-.207 2.278-.518 3.314-.828v-.829c-1.243-.207-2.589-.31-3.831-.518-1.968-.414-4.038-.517-5.695-1.45-3.21-1.656-6.005-1.449-8.697.726-1.76 1.45-3.52 3.106-5.28 4.555-2.59 2.175-5.074 3.21-7.456 3.003 0 0-.103 0-.103.104-1.968-2.071-4.245-3.417-6.937-4.245-8.077-2.382-16.256-2.796-24.643-2.693-7.248.104-14.495.311-21.847.518-3.727.104-4.038.414-2.899 4.349l23.607-1.864c0 .207.104.414.104.518-7.766 1.035-15.635 2.07-23.4 3.106.207 3.52.31 3.727 3.417 3.106 6.212-1.139 12.424-2.381 18.637-3.624.724-.103 1.45-.103 2.174-.207l.104.621c-7.455 1.76-14.91 3.417-22.365 5.177 1.139 2.485 2.381 3.417 4.97 2.589 5.177-1.76 10.457-3.21 15.634-4.763.829-.207 1.553-.414 2.382-.621.103.207.103.414.207.725-5.902 2.07-11.907 4.245-17.912 6.316 2.277 2.692 3.313 3.002 6.212 1.76 3.21-1.45 6.42-3.106 9.733-4.66.62-.31 1.346-.517 1.967-.828l.31.621c-3.623 2.175-7.144 4.245-10.975 6.523 2.9 1.243 5.28 1.243 7.559-.931 1.76-1.76 3.934-3.21 5.902-4.867l.517.518c-2.174 2.07-4.349 4.038-6.73 6.212 5.488 1.45 6.834-4.038 10.872-5.177-1.45 1.657-2.9 3.313-4.556 4.763-1.76 1.553-1.553 2.796 0 4.349 2.485-2.589 4.97-5.28 7.455-7.87.207.208.414.311.621.518-2.07 2.382-4.038 4.867-6.212 7.145-1.346 1.45-1.45 2.485.828 3.624 2.588-3.21 5.177-6.42 7.87-9.733.206.207.517.414.724.621-2.485 3.313-4.97 6.73-7.662 10.458.932.62 2.485 1.553 4.038 2.484-.31 1.036-.518 2.071-.725 3.003 1.967.828 3.106 2.278 3.728 4.66.724 2.795.828 5.798-.311 8.386-1.967 4.452-4.142 8.905-6.627 13.046-2.588 4.453-5.487 8.801-6.626 13.978-.621 2.589.207 3.935 2.796 3.935.931 0 11.907 2.07 12.631 2.381.311.104.622.207.932.207 1.243.207 1.967-.207 1.967-1.553 0-1.346.104-2.692.207-3.934.311-4.66.311-9.32 1.14-13.875 1.035-5.902 5.176-10.25 8.283-15.013.31-.518 1.346-.725 2.07-1.035 1.76-.829 3.728-1.45 5.281-2.692 2.174-1.864 4.66-3.107 7.248-3.935 1.76 2.588 3.52 5.177 4.452 6.316.725-4.556 1.45-8.697 2.174-12.736.31 0 .622.104.932.104-.517 4.245-1.035 8.387-1.553 12.425 2.485.828 3.106 0 3.21-1.967.207-3.107.517-6.316.828-9.423.31 0 .518 0 .828.104-.103 3.624-.31 7.248-.414 10.872 2.278.103 3.314-.725 3.106-3.003-.103-2.174.208-4.349.311-6.627 1.967 3.624-1.035 8.387 3.831 11.39-.104-3.21-.104-6.213-.207-9.112h.828c.207 2.485.725 5.074.622 7.559 0 3.106 1.656 4.763 4.555 6.005-1.035-4.349-1.967-8.387-2.899-12.425l.621-.207c.311.725.518 1.346.829 2.071 1.139 3.417 2.174 6.834 3.417 10.25 1.035 2.9 1.967 3.417 5.487 3.21-2.692-5.798-5.28-11.596-7.869-17.291l.621-.31c.415.724.932 1.345 1.243 2.174 2.485 4.866 5.073 9.629 7.455 14.599 1.139 2.485 2.795 2.692 5.28 1.76-4.038-6.626-7.972-13.15-11.907-19.673.207-.103.414-.207.518-.31a11.917 11.917 0 011.45 1.76c3.416 5.28 6.833 10.665 10.353 15.945 1.761 2.589 1.968 2.589 4.66.31-4.66-6.315-9.319-12.631-13.978-19.05.207-.104.31-.208.517-.311 5.178 6.316 10.251 12.425 15.221 18.533z" fill="#009BD6"/></g><defs><clipPath id="clip0"><path fill="#fff" d="M0 0h117v113.583H0z"/></clipPath></defs></svg>
